!!!OTL: 190d. Die Liebste als Schlangenkoechin.
!!!ARE: Europa, Mitteleuropa, Deutschland, Wilsnack
!!!SCT: E0190B
!!!TXL: @@DE
!!!YEM: Copyright 1995, estate of Helmut Schaffrath.
**kern	**text
*ICvox	*
*M4/4	*
*met(c)	*
*k[b-]	*
*F:	*
!LO:TX:a:t=Mündl. aus der Gegend von Wilsnack.	!
{4c	Wo
=1	=1
4f	biſt
4f	du
4cc	denn
4cc	ſo
=2	=2
4a	lang
8cc/L	ge-
8aJ	.
2f}	-weſ'n,
=3	=3
{(>4.g	Hein-
8f)	.
4g	-rich,
4b-/	mein
=4	=4
4a	lie-
4g	-ber
4f}	Sohn?
{4c	Wo
=5	=5
4f	biſt
4f	du
4cc	denn
4cc	ſo
=6	=6
4a	lang
8ccL	ge-
8aJ	.
2f}	-weſ'n,
=7	=7
{(>4.g	Hein-
8f)	.
4g	-rich,
4b-/	mein
=8	=8
4a	lie-
4g	-ber
4f}	Sohn?
{4c	Jch
=9	=9
4f	bin
4f	bei
4cc	mei'm
4cc	Feins-
=10	=10
4a	-liebchen
(8cc/L	ge-
8aJ)	.
4f}	-weſ'n,
{4f	Frau
=11	=11
4g	Mut-
4g	-ter
4e	mein,
4c	o
=12	=12
2f	weh!
4r}	.
{4f	mein
=13	=13
4g	jun-
8aL	-ges
8b-J	.
2cc	Le-
=14	=14
2a	-ben,
4r}	.
{4cc	ver-
=15	=15
4.dd	-ge-
8cc	-ben
4b-	hat
4g	ſie's
=16	=16
2a	mir!
4r}	.
==	==
!!!AGN: erzaehlendes Volks - Lied, Sage, Familien - Geschichte
!!!ONB: ESAC (Essen Associative Code) Database: ERK1
!!!AMT: simple quadruple
!!!AIN: vox
!!!EED: Helmut Schaffrath
!!!EEV: 1.0
!!!RDF**kern: > = above
!!!GTL: Denkwuerdige Familiengeschichten
!!!URL-scan: https://rosdok.uni-rostock.de/mcrviewer/recordIdentifier/rosdok_ppn745146120/iview2/phys_0647.iview2?x=-128.7727644188933&y=1893.3790829372592&scale=0.5870222003877484&rotation=0&layout=singlePageLayout
!!!ENC: Anna Maria Matuszewska
!!!EEV: 2024/05/12
*-	*-
